images/item-efficien4.svg

<svg width="55" height="55" viewBox="0 0 55 55" fill="none" xmlns="http://www.w3.org/2000/svg">
<path d="M46.361 25.3881C46.2959 25.1127 46.1638 24.8575 45.9764 24.6454C45.789 24.4333 45.5521 24.2707 45.2868 24.1721L32.9097 19.5294L36.0593 3.77486C36.1306 3.40881 36.0809 3.0295 35.9177 2.69416C35.7546 2.35882 35.4868 2.08565 35.1547 1.91587C34.8227 1.74608 34.4444 1.68891 34.077 1.75296C33.7096 1.81702 33.373 1.99883 33.1181 2.27096L9.05555 28.0522C8.86012 28.2581 8.71874 28.5093 8.64405 28.7832C8.56935 29.0571 8.56367 29.3452 8.62751 29.6218C8.69135 29.8985 8.82272 30.155 9.00988 30.3685C9.19705 30.5819 9.43418 30.7457 9.70008 30.8452L22.0815 35.4879L18.9405 51.2252C18.8692 51.5913 18.9189 51.9706 19.082 52.306C19.2452 52.6413 19.513 52.9145 19.8451 53.0842C20.1771 53.254 20.5554 53.3112 20.9228 53.2472C21.2901 53.1831 21.6267 53.0013 21.8817 52.7292L45.9442 26.9479C46.1361 26.7419 46.2745 26.492 46.3472 26.22C46.4198 25.948 46.4246 25.6624 46.361 25.3881ZM23.4973 45.9766L25.7468 34.7231C25.8273 34.324 25.7635 33.9093 25.5668 33.5528C25.37 33.1963 25.0531 32.9213 24.6725 32.7766L13.3202 28.512L31.5003 9.03424L29.253 20.2878C29.1725 20.6869 29.2363 21.1016 29.433 21.4581C29.6298 21.8145 29.9466 22.0896 30.3272 22.2342L41.671 26.4881L23.4973 45.9766Z" fill="#F44336"/>
</svg>

<svg xmlns="http://www.w3.org/2000/svg" width="55" height="55" fill="none"><path fill="#F44336" d="M46.361 25.388a1.719 1.719 0 0 0-1.074-1.216L32.91 19.53l3.15-15.754a1.719 1.719 0 0 0-2.942-1.504L9.056 28.052a1.719 1.719 0 0 0 .644 2.793l12.381 4.643-3.14 15.737a1.72 1.72 0 0 0 2.94 1.504l24.063-25.781a1.72 1.72 0 0 0 .417-1.56ZM23.497 45.977l2.25-11.254a1.719 1.719 0 0 0-1.075-1.946L13.32 28.512 31.5 9.034l-2.247 11.254a1.719 1.719 0 0 0 1.074 1.946l11.344 4.254-18.174 19.489Z"/></svg>
